X:71
T:Sweet Lillies of the Valley. JJo.071
S:J.Jones MS,1801,N.Shrops.
A:N Shropshire
Z:Neil Brookes 2006
M:2/4
L:1/8
Q:1/4=80
K:C
g/f/|ecc e/d/|cAA B/c/|ddfd|B2{dc}B g/f/|ecc e/d/|cAA B/c/|ddfB|!
c3e/f/|geec|d>c c/B/A/G/|Bddd|dHg zg/f/|ecc e/d/|!
cAf a/g/|fdd e/c/|BGHg g/f/e/d/|cccc|egz g/f/e/d/|cccc|fHa zg/f/|!
ecGE|FaHgf|egdf|ecz|]

